src/assets/svg/icons/fa/nuevos/classic/light/xmark-large classic light.svg

<svg xmlns="http://www.w3.org/2000/svg" viewBox="0 0 448 512"><path d="M420.7 36.69C426.9 30.44 437.1 30.44 443.3 36.69C449.6 42.93 449.6 53.06 443.3 59.31L246.6 256L443.3 452.7C449.6 458.9 449.6 469.1 443.3 475.3C437.1 481.6 426.9 481.6 420.7 475.3L224 278.6L27.31 475.3C21.07 481.6 10.94 481.6 4.686 475.3C-1.562 469.1-1.562 458.9 4.686 452.7L201.4 256L4.686 59.31C-1.562 53.07-1.562 42.94 4.686 36.69C10.93 30.44 21.06 30.44 27.31 36.69L224 233.4L420.7 36.69z"/></svg>

<svg xmlns="http://www.w3.org/2000/svg" viewBox="0 0 448 512"><!--! Font Awesome Pro 6.4.0 by @fontawesome - https://fontawesome.com License - https://fontawesome.com/license (Commercial License) Copyright 2023 Fonticons, Inc. --><path d="M420.7 36.7c6.2-6.2 16.4-6.2 22.6 0s6.2 16.4 0 22.6L246.6 256 443.3 452.7c6.2 6.2 6.2 16.4 0 22.6s-16.4 6.2-22.6 0L224 278.6 27.3 475.3c-6.2 6.2-16.4 6.2-22.6 0s-6.2-16.4 0-22.6L201.4 256 4.7 59.3c-6.2-6.2-6.2-16.4 0-22.6s16.4-6.2 22.6 0L224 233.4 420.7 36.7z"/></svg>
